components/icons/foodIcon/PIZZA.svg

<svg width="32" height="32" viewBox="0 0 32 32" fill="none" xmlns="http://www.w3.org/2000/svg">
<path d="M32 16C32 24.84 24.84 32 16 32C7.16 32 0 24.83 0 16C0 7.17 7.16 0 16 0C24.84 0 32 7.16 32 16Z" fill="#FA9C19"/>
<path opacity="0.25" d="M18.8999 31.7C19.0099 31.68 19.1199 31.69 19.2299 31.67C21.2799 31.25 23.2199 30.43 24.9499 29.26C25.7999 28.68 26.5899 28.03 27.3199 27.3C29.5399 25.09 31.0499 22.28 31.6799 19.21C31.7499 18.86 31.7399 18.48 31.7899 18.12L23.6299 9.96004C23.5199 9.85004 23.3999 9.76004 23.2899 9.66004C23.2199 9.60004 23.1499 9.54004 23.0799 9.48004C22.8499 9.31004 22.6099 9.15004 22.3599 9.02004L22.2599 8.92004C22.2599 8.92004 22.2199 8.89004 22.1999 8.88004C22.1799 8.88004 22.1799 8.86004 22.1599 8.86004C22.1299 8.85004 22.0999 8.85004 22.0999 8.85004C22.0299 8.85004 21.9599 8.92004 21.8799 8.92004L21.3799 9.56004C19.7599 8.11004 17.6599 7.30004 15.4799 7.29004C10.7199 7.29004 6.81995 11.19 6.81995 16.02C6.81995 16.32 6.83995 16.62 6.86995 16.91C6.86995 16.99 6.89995 17.07 6.90995 17.16C6.93995 17.37 6.95995 17.58 7.00995 17.78V17.8C7.18995 18.62 7.47995 19.41 7.87995 20.15C7.99995 20.38 8.13995 20.59 8.27995 20.8L8.31995 20.86C8.39995 20.98 8.48995 21.09 8.56995 21.2C8.64995 21.31 8.72995 21.43 8.81995 21.53C8.86995 21.59 8.91995 21.64 8.96995 21.69C9.09995 21.84 9.22995 21.99 9.36995 22.12L9.38995 22.14L18.9199 31.67L18.8999 31.7Z" fill="black"/>
<path d="M15.4799 7.30029C10.7199 7.30029 6.81995 11.2103 6.81995 16.0403C6.81995 20.8703 10.7299 24.7003 15.4799 24.7003C20.2299 24.7003 24.2099 20.8603 24.2099 16.0403V15.6803H24.5599C24.6999 15.6803 24.7699 15.6103 24.8399 15.4703C25.7599 12.9903 24.6299 10.2103 22.2799 9.01029C22.2099 8.87029 22.0699 8.87029 22.0699 8.87029C21.9999 8.87029 21.9299 8.94029 21.8599 8.94029L21.3599 9.58029C19.8699 8.23029 17.7399 7.3103 15.4699 7.3103L15.4799 7.30029ZM15.4799 7.94029C17.6099 7.94029 19.5299 8.7203 20.9499 10.0703L20.1699 10.9903C18.9199 9.8103 17.2699 9.1503 15.5499 9.1403C11.7899 9.1403 8.72995 12.1903 8.72995 15.9603C8.72995 19.7203 11.7799 22.8503 15.5499 22.8503C19.3199 22.8503 22.3699 19.8003 22.3699 15.9603V15.6103H23.6499V15.9603C23.6499 20.5103 20.0299 24.0603 15.5499 24.0603C10.9999 24.1303 7.44995 20.5103 7.44995 15.9603C7.41995 11.5603 10.9699 7.97029 15.3699 7.94029C15.4099 7.94029 15.4399 7.94029 15.4799 7.94029ZM22.2299 9.5703C24.1499 10.6403 25.0699 12.9103 24.3599 15.1103L17.3299 15.1803L21.5899 10.2803L22.2299 9.5703ZM13.7099 10.7003C13.7799 10.7003 14.0599 10.7003 14.1399 10.8403C14.2699 10.9703 14.2899 11.1703 14.2099 11.3403C14.1399 11.4803 14.0699 11.6203 13.9299 11.6903C13.7199 11.9003 13.4299 12.0403 13.1499 11.9703C12.9399 11.9703 12.7899 11.9003 12.7199 11.7603C12.5799 11.6203 12.5099 11.4803 12.5799 11.2603C12.6499 11.1203 12.7199 10.9803 12.8599 10.9803H13.4299C13.3599 10.9803 13.4999 10.9103 13.6399 10.8403C13.5699 10.7703 13.6399 10.7003 13.7099 10.7003ZM22.0899 10.8503C21.7399 10.8503 21.3799 11.2103 21.3799 11.5603C21.3799 11.9903 21.6599 12.2703 22.0899 12.2703C22.4399 12.2703 22.7999 11.9903 22.7999 11.5603C22.9399 11.2103 22.5899 10.8503 22.0899 10.8503ZM16.0499 11.2003C16.1899 11.1303 16.3299 11.2003 16.3999 11.2703C16.4699 11.3403 16.5399 11.4103 16.5399 11.4803C16.5799 11.5603 16.6199 11.6303 16.6799 11.6903C16.6099 11.6203 16.7499 11.6903 16.8899 11.7603C16.9599 11.7603 17.0299 11.8303 17.0999 11.8303C17.1699 11.9003 17.2399 12.1103 17.1699 12.2603C17.0999 12.4703 16.9599 12.5403 16.8199 12.6103C16.6799 12.6803 16.5399 12.6103 16.3899 12.6103C16.1099 12.5403 15.8199 12.4003 15.6799 12.1103C15.6099 11.9003 15.6099 11.7603 15.6099 11.6103C15.6699 11.4103 15.8299 11.2503 16.0399 11.1803L16.0499 11.2003ZM22.0899 11.4203C22.1599 11.4203 22.2299 11.4903 22.2299 11.5603C22.2299 11.6403 22.1599 11.7003 22.0899 11.7003C22.0099 11.7003 21.9499 11.6303 21.9499 11.5603C22.0899 11.4903 22.0899 11.4203 22.0899 11.4203ZM22.9399 12.9103C22.7299 12.9103 22.5899 13.0503 22.5099 13.1203C22.4399 13.2603 22.2999 13.4003 22.3699 13.6203C22.4399 13.7603 22.5799 13.8303 22.6499 13.9003C22.7199 13.9703 22.8599 13.9703 22.9299 13.9703H23.2099C23.1399 13.9703 23.2799 14.0403 23.3499 14.1103C23.4199 14.1803 23.4199 14.1803 23.5599 14.2503C23.6999 14.2503 23.9099 14.2503 23.9899 14.1103C24.0599 13.9703 24.0599 13.7603 24.0599 13.6103C23.9899 13.4703 23.9199 13.3303 23.8499 13.2603C23.4199 13.0503 23.2099 12.9103 22.9299 12.9103H22.9399ZM19.8899 13.0503H19.7499C19.6799 13.0503 19.6099 13.1203 19.5399 13.1903C19.3999 13.4003 19.3999 13.6203 19.4699 13.8303C19.5299 14.0103 19.6499 14.1703 19.8199 14.2603C20.0999 14.5403 20.4599 14.7603 20.8899 14.6903C21.0999 14.6903 21.3199 14.5503 21.4599 14.4103C21.5999 14.2703 21.6699 14.0603 21.5999 13.7703C21.5299 13.6303 21.3899 13.4903 21.2499 13.4903C21.1099 13.4903 21.0399 13.4203 20.8999 13.4203H20.4699C20.4699 13.4203 20.3299 13.3503 20.1899 13.2103C20.1899 13.1403 20.0499 13.0703 19.9099 13.0703C20.0033 13.0703 20.0033 13.0703 19.9099 13.0703L19.8899 13.0503ZM13.0699 13.2603C13.4199 13.2603 13.7799 13.6103 13.7799 13.9703C13.7799 14.3303 13.4299 14.6803 13.0699 14.6803C12.6799 14.6803 12.3599 14.3603 12.3599 13.9703C12.3599 13.6203 12.7099 13.2603 13.0699 13.2603ZM20.3799 13.9703C20.5899 14.0403 20.8099 14.0403 20.8799 14.0403H20.9499V14.1103C20.8799 14.1803 20.8099 14.1803 20.8099 14.1803C20.8099 14.1803 20.5999 14.0403 20.3799 13.9703ZM10.8699 14.5403H11.0799C11.2199 14.6103 11.4299 14.6803 11.5099 14.8203C11.5799 14.9603 11.5099 15.1703 11.4399 15.2503C11.3699 15.3303 11.2999 15.3203 11.2299 15.3903C11.0899 15.4603 11.0199 15.4603 11.0199 15.4603C11.0199 15.4603 10.9499 15.6003 10.8799 15.6703C10.8099 15.7403 10.8099 15.8103 10.7399 15.8803C10.6399 15.9703 10.5199 16.0203 10.3899 16.0203C10.1799 15.9503 10.0299 15.8103 10.0299 15.5903C9.94995 15.4303 9.97995 15.2303 10.0999 15.0903C10.2399 14.8103 10.5299 14.6603 10.7399 14.5903C10.7399 14.5903 10.8099 14.5903 10.8799 14.5203L10.8699 14.5403ZM15.1999 14.5403C15.4099 14.5403 15.5499 14.6803 15.6299 14.7503C15.7699 14.8903 15.8399 15.0303 15.7699 15.2503C15.7099 15.3803 15.6099 15.4803 15.4899 15.5303H14.9199L14.7799 15.6703C14.7099 15.6703 14.7099 15.7403 14.5699 15.8103C14.4999 15.8103 14.2899 15.7403 14.2199 15.6703C14.0899 15.5403 14.0699 15.3403 14.1499 15.1703C14.2199 15.0303 14.2899 14.9603 14.4299 14.8203C14.5699 14.6803 14.8599 14.5403 15.2099 14.5403H15.1999ZM16.6199 16.7403H16.8299C16.9699 16.7403 17.1799 16.8803 17.2599 17.0203C17.3299 17.1603 17.2599 17.3703 17.1899 17.4503C17.1199 17.5203 17.0499 17.5203 16.9799 17.5903C16.9099 17.6603 16.7699 17.6603 16.7699 17.6603C16.7699 17.6603 16.6999 17.7303 16.6299 17.8703C16.5599 17.9403 16.5599 18.0103 16.4899 18.0803C16.4199 18.1503 16.2799 18.2203 16.1399 18.1503C15.9299 18.0803 15.7899 17.9403 15.7899 17.8003C15.7199 17.6403 15.7199 17.4603 15.7899 17.3003C15.9299 17.0203 16.2199 16.8703 16.4299 16.8003C16.4999 16.7303 16.5699 16.7303 16.6399 16.7303L16.6199 16.7403ZM12.6399 16.8103C12.7799 16.8103 12.9199 16.8803 13.0699 16.9503C13.2399 17.0303 13.3499 17.1903 13.3499 17.3803C13.3299 17.4903 13.2799 17.5903 13.2099 17.6603C13.2099 17.6603 13.2099 17.7303 13.1399 17.7303C13.0699 17.8003 12.9299 17.8003 12.8599 17.8003H12.6499C12.6499 17.8003 12.5799 17.8703 12.4399 17.9403C12.3933 17.987 12.3233 18.0336 12.2299 18.0803C12.1599 18.1503 11.9499 18.1503 11.7999 18.0803C11.5899 17.9403 11.5899 17.7303 11.5899 17.5803C11.5899 17.4303 11.6599 17.2303 11.7999 17.1503C12.0799 16.8703 12.3699 16.8003 12.6499 16.8003L12.6399 16.8103ZM19.6699 17.9503C20.0299 17.9503 20.3799 18.2303 20.3799 18.6603C20.3799 19.0903 20.0299 19.3703 19.6699 19.3703C19.3099 19.3703 18.9599 19.0203 18.9599 18.6603C18.9599 18.3003 19.3099 17.9503 19.6699 17.9503ZM17.3299 18.9403C17.6799 18.9403 18.0399 19.2903 18.0399 19.6503C18.0399 20.0103 17.6899 20.3603 17.3299 20.3603C16.9399 20.3603 16.6199 20.0403 16.6199 19.6503C16.6199 19.2203 16.8999 18.9403 17.3299 18.9403ZM13.7099 19.7203H13.7799C13.9199 19.7203 13.9199 19.7903 13.9899 19.8603C14.0599 19.9303 14.1999 20.0003 14.1299 20.0003H14.4099C14.4799 20.0003 14.5499 20.0003 14.6199 20.0703C14.6899 20.1403 14.8299 20.2103 14.8999 20.2803C14.9699 20.4803 14.9099 20.7003 14.7599 20.8503C14.6899 20.9903 14.5499 21.0603 14.3299 21.0603C14.0499 21.0603 13.7599 20.9203 13.5499 20.7003C13.4099 20.6303 13.3399 20.4903 13.2699 20.3503C13.1899 20.1903 13.2199 19.9903 13.3399 19.8503C13.4399 19.7603 13.5599 19.7103 13.6899 19.7103L13.7099 19.7203Z" fill="white"/>
</svg>

<svg xmlns="http://www.w3.org/2000/svg" width="48" height="48" viewBox="0 0 32 32" version="1" id="food">
  <path fill="#5dc560" d="M32 16c0 8.836-7.164 16-16 16S0 24.836 0 16 7.164 0 16 0s16 7.164 16 16z"></path>
  <path d="M18.9 31.709c.106-.02.22-.012.325-.033a15.887 15.887 0 0 0 5.72-2.408 16.083 16.083 0 0 0 2.367-1.956 15.953 15.953 0 0 0 4.363-8.088c.073-.353.062-.733.11-1.095L23.63 9.973c-.106-.106-.228-.198-.344-.295-.072-.06-.137-.125-.213-.182a5.302 5.302 0 0 0-.718-.459l-.102-.101c-.022-.022-.043-.027-.064-.038-.019-.009-.025-.017-.04-.021-.034-.01-.058-.014-.058-.014-.071 0-.144.07-.215.07l-.496.64A8.92 8.92 0 0 0 15.484 7.3c-4.758 0-8.664 3.905-8.664 8.734 0 .3.016.598.045.89.009.083.027.163.037.245.028.21.054.42.096.625l.006.025a8.622 8.622 0 0 0 .861 2.352c.123.225.256.442.397.654l.037.059c.08.117.169.228.254.342.084.111.165.226.254.334.047.056.1.108.148.164.13.148.258.296.397.435l.017.018 9.531 9.531z" opacity=".25"></path>
  <path fill="#fff" d="M15.485 7.3c-4.758 0-8.664 3.907-8.664 8.736 0 4.828 3.906 8.663 8.664 8.663 4.758 0 8.734-3.835 8.734-8.663v-.356h.355c.142 0 .213-.07.284-.213.924-2.485-.213-5.255-2.556-6.462-.071-.142-.213-.142-.213-.142-.071 0-.142.071-.213.071l-.497.64C19.887 8.223 17.757 7.3 15.485 7.3zm0 .64c2.13 0 4.047.781 5.468 2.13l-.781.923a6.744 6.744 0 0 0-4.616-1.846 6.82 6.82 0 0 0-6.818 6.817c0 3.764 3.054 6.889 6.818 6.889 3.763 0 6.817-3.054 6.817-6.889v-.355h1.278v.355c0 4.545-3.621 8.096-8.095 8.096-4.545.071-8.096-3.55-8.096-8.096a7.971 7.971 0 0 1 8.025-8.024zm6.746 1.633c1.917 1.065 2.84 3.338 2.13 5.54l-7.03.07 4.26-4.9.64-.71zm-8.522 1.136c.071 0 .355 0 .426.142a.437.437 0 0 1 .071.498c-.07.142-.142.284-.284.355-.213.213-.497.355-.78.284-.214 0-.356-.071-.427-.213-.142-.142-.213-.284-.142-.497.071-.142.142-.285.284-.285h.568c-.07 0 .071-.07.213-.142-.07-.07 0-.142.071-.142zm8.38.142c-.355 0-.71.356-.71.71 0 .427.284.71.71.71.355 0 .71-.283.71-.71.142-.354-.213-.71-.71-.71zm-6.036.356c.142-.071.284 0 .355.07.07.072.142.143.142.214a.879.879 0 0 0 .142.213c-.071-.071.07 0 .213.07.07 0 .142.072.213.072.07.07.142.284.07.426-.07.213-.212.284-.354.355-.142.07-.284 0-.426 0-.284-.071-.568-.213-.71-.497-.071-.213-.071-.355-.071-.497a.64.64 0 0 1 .426-.426zm6.036.213c.07 0 .142.07.142.142a.153.153 0 0 1-.142.142.153.153 0 0 1-.142-.142c.142-.071.142-.142.142-.142zm.852 1.49c-.213 0-.355.143-.426.214-.071.142-.213.284-.142.497.071.142.213.213.284.284.071.071.213.071.284.071h.284c-.07 0 .071.071.142.142s.071.071.213.142c.142 0 .355 0 .426-.142.071-.142.071-.355.071-.497-.07-.142-.142-.284-.213-.355-.426-.213-.639-.355-.923-.355zm-3.054.143h-.142c-.07 0-.142.07-.213.142-.142.213-.142.426-.07.64a.727.727 0 0 0 .354.425c.285.284.64.497 1.066.426.213 0 .426-.142.568-.284.142-.142.213-.355.142-.639-.071-.142-.213-.284-.355-.284s-.213-.071-.355-.071h-.426s-.142-.071-.284-.213c0-.071-.142-.142-.285-.142.143 0 .143 0 0 0zm-6.817.213c.355 0 .71.355.71.71s-.355.71-.71.71a.712.712 0 0 1-.71-.71c0-.355.355-.71.71-.71zm7.315.71c.213.071.426.071.497.071h.07v.071c-.07.071-.141.071-.141.071s-.213-.142-.426-.213zm-9.516.568h.213c.142.071.355.142.426.284.07.142 0 .355-.071.426-.071.071-.142.071-.213.142-.142.071-.213.071-.213.071s-.071.142-.142.213c-.071.071-.071.142-.142.213a.542.542 0 0 1-.355.143c-.214-.072-.356-.214-.356-.427a.437.437 0 0 1 .071-.497c.142-.284.427-.426.64-.497 0 0 .07 0 .142-.07zm4.332 0c.213 0 .355.142.426.213.142.142.213.284.142.497a.554.554 0 0 1-.284.284h-.569l-.142.142c-.07 0-.07.071-.213.142-.07 0-.284-.07-.355-.142a.437.437 0 0 1-.07-.497c.07-.142.141-.213.283-.355s.426-.284.782-.284zm1.42 2.202h.213c.142 0 .355.142.426.284.07.142 0 .355-.071.426-.071.07-.142.07-.213.142-.071.07-.213.07-.213.07s-.071.072-.142.214c-.071.07-.071.142-.142.213-.071.07-.213.142-.355.07-.213-.07-.355-.212-.355-.354a.607.607 0 0 1 0-.497c.142-.284.426-.426.639-.497.07-.071.142-.071.213-.071zm-3.977.07c.142 0 .284.072.426.143a.48.48 0 0 1 .284.426.538.538 0 0 1-.142.284s0 .07-.07.07c-.072.072-.214.072-.285.072h-.213s-.071.07-.213.142c-.071.07-.071.07-.213.142-.071.07-.284.07-.426 0-.213-.142-.213-.355-.213-.497 0-.142.07-.355.213-.426.284-.284.568-.355.852-.355zm7.03 1.137c.356 0 .71.284.71.71s-.354.71-.71.71c-.355 0-.71-.355-.71-.71s.355-.71.71-.71zm-2.343.994c.355 0 .71.355.71.71s-.355.71-.71.71a.712.712 0 0 1-.71-.71c0-.426.284-.71.71-.71zm-3.622.781h.071c.142 0 .142.071.213.142.071.071.213.142.142.142h.284c.071 0 .142 0 .213.071.071.071.213.142.284.213a.552.552 0 0 1-.142.568c-.07.143-.213.214-.426.214-.284 0-.568-.142-.78-.356-.143-.07-.214-.213-.285-.355a.437.437 0 0 1 .071-.497.542.542 0 0 1 .355-.142z"></path>
</svg>
